public/images/home/wordpress.svg

<svg width="167" height="38" viewBox="0 0 167 38" fill="none" xmlns="http://www.w3.org/2000/svg">
<g clip-path="url(#clip0)">
<path d="M96.851 14.9574H90.2798V15.6568C92.3349 15.6568 92.6657 16.0987 92.6657 18.7136V23.4284C92.6657 26.0433 92.3355 26.5224 90.2798 26.5224C88.7017 26.3013 87.6367 25.4543 86.1684 23.8335L84.4796 21.9921C86.7554 21.5865 87.9666 20.1505 87.9666 18.5297C87.9666 16.5044 86.2416 14.9574 83.0109 14.9574H76.5504V15.6568C78.6055 15.6568 78.9362 16.0987 78.9362 18.7136V23.4284C78.9362 26.0433 78.6058 26.5224 76.5504 26.5224V27.2221H83.8554V26.5224C81.8 26.5224 81.4696 26.0433 81.4696 23.4284V22.1032H82.0934L86.1687 27.2221H96.8513C102.1 27.2221 104.377 24.4234 104.377 21.0713C104.376 17.7196 102.101 14.9574 96.851 14.9574ZM81.4699 20.9603V16.0625H82.9747C84.6264 16.0625 85.3609 17.2041 85.3609 18.53C85.3609 19.8192 84.6264 20.9606 82.9747 20.9606L81.4699 20.9603ZM96.9614 26.0802H96.7042C95.3832 26.0802 95.1996 25.7492 95.1996 24.0549V16.0625H96.9614C100.779 16.0625 101.476 18.8612 101.476 21.0344C101.476 23.2808 100.779 26.0802 96.9614 26.0802ZM56.1039 22.3237L58.6369 14.8095C59.3714 12.6366 59.0409 12.011 56.6915 12.011V11.2741H63.5929V12.011C61.2802 12.011 60.7297 12.5631 59.8119 15.2517L55.6266 27.848H55.1496L51.4051 16.3199L47.5873 27.848H47.11L43.0354 15.252C42.154 12.5634 41.567 12.0113 39.4374 12.0113V11.2744H47.587V12.0113C45.4209 12.0113 44.8333 12.5268 45.6045 14.8098L48.064 22.324L51.7717 11.2744H52.4694L56.1039 22.3237ZM68.5847 27.7004C64.5468 27.7004 61.2428 24.7174 61.2428 21.0707C61.2428 17.4612 64.5471 14.4779 68.5847 14.4779C72.6229 14.4779 75.9266 17.4612 75.9266 21.0707C75.9266 24.7174 72.6229 27.7004 68.5847 27.7004ZM68.5847 15.6205C65.2078 15.6205 64.0327 18.6767 64.0327 21.071C64.0327 23.5022 65.2078 26.5221 68.5847 26.5221C71.999 26.5221 73.1741 23.5022 73.1741 21.071C73.1737 18.6767 71.999 15.6205 68.5847 15.6205Z" fill="#00749A"/>
<path d="M113.443 26.4853V27.2219H105.037V26.4853C107.497 26.4853 107.937 25.8591 107.937 22.1755V16.2833C107.937 12.5997 107.497 12.0111 105.037 12.0111V11.2739H112.636C116.416 11.2739 118.51 13.2259 118.51 15.8414C118.51 18.3827 116.416 20.3714 112.636 20.3714H110.543V22.1755C110.543 25.8594 110.984 26.4853 113.443 26.4853ZM112.636 12.5997H110.543V19.0086H112.636C114.692 19.0086 115.646 17.5723 115.646 15.8414C115.646 14.0736 114.692 12.5997 112.636 12.5997ZM143.729 23.76L143.545 24.4228C143.215 25.6383 142.81 26.0802 140.204 26.0802H139.69C137.781 26.0802 137.451 25.6383 137.451 23.0237V21.3297C140.314 21.3297 140.535 21.5871 140.535 23.5026H141.233V18.0143H140.535C140.535 19.9294 140.314 20.1871 137.451 20.1871V16.0625H139.47C142.076 16.0625 142.48 16.5045 142.81 17.7199L142.995 18.4196H143.581L143.325 14.9578H132.532V15.6572C134.587 15.6572 134.918 16.0991 134.918 18.714V23.4285C134.918 25.8206 134.638 26.4232 133.017 26.5095C131.476 26.2731 130.419 25.4305 128.972 23.8335L127.283 21.9922C129.559 21.5865 130.771 20.1505 130.771 18.5297C130.771 16.5045 129.045 14.9575 125.815 14.9575H119.354V15.6568C121.41 15.6568 121.74 16.0988 121.74 18.7136V23.4285C121.74 26.0433 121.41 26.5225 119.354 26.5225V27.2222H126.66V26.5225C124.604 26.5225 124.273 26.0433 124.273 23.4285V22.1032H124.897L128.972 27.2222H144.06L144.28 23.7606L143.729 23.76ZM124.273 20.9603V16.0625H125.778C127.43 16.0625 128.164 17.2042 128.164 18.53C128.164 19.8193 127.43 20.9606 125.778 20.9606L124.273 20.9603ZM151.18 27.7004C149.712 27.7004 148.427 26.9272 147.876 26.4481C147.692 26.6326 147.363 27.185 147.289 27.7004H146.592V22.6181H147.326C147.62 25.049 149.308 26.4853 151.474 26.4853C152.649 26.4853 153.603 25.8222 153.603 24.7178C153.603 23.7603 152.759 23.0234 151.254 22.3237L149.161 21.3294C147.692 20.6291 146.592 19.4133 146.592 17.7934C146.592 16.0256 148.244 14.5158 150.52 14.5158C151.731 14.5158 152.759 14.9581 153.383 15.4735C153.567 15.3259 153.75 14.9209 153.86 14.4786H154.558V18.825H153.787C153.53 17.0937 152.575 15.6575 150.63 15.6575C149.602 15.6575 148.648 16.2464 148.648 17.1679C148.648 18.1253 149.418 18.6408 151.181 19.4509L153.199 20.4452C154.962 21.2922 155.659 22.6556 155.659 23.7603C155.659 26.0802 153.64 27.7004 151.18 27.7004ZM162.487 27.7004C161.018 27.7004 159.733 26.9272 159.183 26.4481C158.999 26.6326 158.669 27.185 158.596 27.7004H157.898V22.6181H158.633C158.926 25.049 160.614 26.4853 162.781 26.4853C163.955 26.4853 164.91 25.8222 164.91 24.7178C164.91 23.7603 164.066 23.0234 162.56 22.3237L160.468 21.3294C158.999 20.6291 157.898 19.4133 157.898 17.7934C157.898 16.0256 159.55 14.5158 161.826 14.5158C163.038 14.5158 164.065 14.9581 164.69 15.4735C164.873 15.3259 165.057 14.9209 165.166 14.4786H165.864V18.825H165.093C164.836 17.0937 163.882 15.6575 161.937 15.6575C160.909 15.6575 159.954 16.2464 159.954 17.1679C159.954 18.1253 160.725 18.6408 162.487 19.4509L164.506 20.4452C166.268 21.2922 166.965 22.6556 166.965 23.7603C166.965 26.0802 164.946 27.7004 162.487 27.7004Z" fill="#464342"/>
<path d="M2.72681 18.9996C2.72681 25.4516 6.46389 31.0268 11.8829 33.6692L4.13366 12.3663C3.20457 14.4534 2.72516 16.7138 2.72681 18.9996ZM29.9402 18.1771C29.9402 16.1627 29.219 14.7677 28.6004 13.6819C27.7769 12.3393 27.005 11.2023 27.005 9.85965C27.005 8.36134 28.1376 6.96661 29.7331 6.96661C29.8051 6.96661 29.8734 6.97561 29.9436 6.97964C27.0532 4.32324 23.2024 2.70087 18.9732 2.70087C13.2975 2.70087 8.30383 5.62244 5.39924 10.0476C5.78009 10.0591 6.13961 10.0668 6.44472 10.0668C8.14401 10.0668 10.7744 9.85996 10.7744 9.85996C11.6502 9.80817 11.7534 11.0987 10.8786 11.2026C10.8786 11.2026 9.99848 11.3065 9.01916 11.358L14.935 29.0133L18.4903 18.3155L15.9591 11.3577C15.0843 11.3062 14.2552 11.2023 14.2552 11.2023C13.3797 11.1508 13.4824 9.80786 14.3578 9.85965C14.3578 9.85965 17.0411 10.0665 18.6374 10.0665C20.3361 10.0665 22.9671 9.85965 22.9671 9.85965C23.8435 9.80786 23.9464 11.0984 23.0713 11.2023C23.0713 11.2023 22.189 11.3062 21.2116 11.3577L27.0826 28.879L28.703 23.4462C29.4057 21.1918 29.9402 19.5725 29.9402 18.1771Z" fill="#464342"/>
<path d="M19.2577 20.4251L14.3831 34.6353C15.8734 35.0759 17.419 35.2997 18.9727 35.2997C20.8101 35.3001 22.6342 34.9877 24.3673 34.3757C24.3223 34.3045 24.2836 34.2293 24.2517 34.1512L19.2577 20.4251ZM33.2279 11.1793C33.2981 11.6985 33.3374 12.2561 33.3374 12.8553C33.3374 14.5094 33.0295 16.3687 32.1021 18.6935L27.1396 33.0883C31.9695 30.2626 35.2181 25.0127 35.2181 18.9993C35.2225 16.266 34.5378 13.576 33.2279 11.1793Z" fill="#464342"/>
<path d="M18.9741 0C8.53203 0 0.0361938 8.52312 0.0361938 18.9995C0.0361938 29.4772 8.53203 38.0003 18.9745 38.0003C29.416 38.0003 37.9133 29.4775 37.9133 18.9995C37.9127 8.52312 29.416 0 18.9741 0ZM18.9741 37.1291C9.01087 37.1291 0.904541 28.9962 0.904541 18.9995C0.904541 9.00384 9.01056 0.87151 18.9741 0.87151C28.9371 0.87151 37.0425 9.00384 37.0425 18.9995C37.0428 28.9962 28.9371 37.1291 18.9741 37.1291Z" fill="#464342"/>
</g>
<defs>
<clipPath id="clip0">
<rect width="167" height="38" fill="white"/>
</clipPath>
</defs>
</svg>

<svg xmlns="http://www.w3.org/2000/svg" width="167" height="38" fill="none" xmlns:v="https://vecta.io/nano"><g clip-path="url(#A)"><path d="M96.851 14.957H90.28v.699c2.055 0 2.386.442 2.386 3.057v4.715c0 2.615-.33 3.094-2.386 3.094-1.578-.221-2.643-1.068-4.111-2.689l-1.689-1.841c2.276-.406 3.487-1.842 3.487-3.462 0-2.025-1.725-3.572-4.956-3.572H76.55v.699c2.055 0 2.386.442 2.386 3.057v4.715c0 2.615-.33 3.094-2.386 3.094v.7h7.305v-.7c-2.055 0-2.386-.479-2.386-3.094v-1.325h.624l4.075 5.119h10.683c5.249 0 7.526-2.799 7.526-6.151s-2.276-6.114-7.526-6.114zM81.47 20.96v-4.898h1.505c1.652 0 2.386 1.142 2.386 2.468 0 1.289-.734 2.431-2.386 2.431H81.47zm15.492 5.12h-.257c-1.321 0-1.505-.331-1.505-2.025v-7.992h1.762c3.818 0 4.515 2.799 4.515 4.972 0 2.246-.697 5.046-4.515 5.046zm-40.857-3.757l2.533-7.514c.735-2.173.404-2.799-1.945-2.799v-.737h6.901v.737c-2.313 0-2.863.552-3.781 3.241l-4.185 12.596h-.477L51.405 16.32l-3.818 11.528h-.477l-4.075-12.596c-.881-2.689-1.468-3.241-3.598-3.241v-.737h8.15v.737c-2.166 0-2.754.515-1.983 2.798l2.459 7.514 3.708-11.05h.698l3.635 11.049zM68.585 27.7c-4.038 0-7.342-2.983-7.342-6.63 0-3.609 3.304-6.593 7.342-6.593s7.342 2.983 7.342 6.593c0 3.647-3.304 6.63-7.342 6.63zm0-12.08c-3.377 0-4.552 3.056-4.552 5.451 0 2.431 1.175 5.451 4.552 5.451 3.414 0 4.589-3.02 4.589-5.451 0-2.394-1.175-5.451-4.589-5.451z" fill="#00749a"/><g fill="#464342"><path d="M113.443 26.485v.737h-8.406v-.737c2.46 0 2.9-.626 2.9-4.31v-5.892c0-3.684-.44-4.272-2.9-4.272v-.737h7.599c3.78 0 5.874 1.952 5.874 4.568 0 2.541-2.094 4.53-5.874 4.53h-2.093v1.804c0 3.684.441 4.31 2.9 4.31zm-.807-13.886h-2.093v6.409h2.093c2.056 0 3.01-1.436 3.01-3.167 0-1.768-.954-3.242-3.01-3.242zm31.093 11.16l-.184.663c-.33 1.216-.735 1.657-3.341 1.657h-.514c-1.909 0-2.239-.442-2.239-3.056V21.33c2.863 0 3.084.257 3.084 2.173h.698v-5.488h-.698c0 1.915-.221 2.173-3.084 2.173v-4.125h2.019c2.606 0 3.01.442 3.34 1.657l.185.7h.586l-.256-3.462h-10.793v.699c2.055 0 2.386.442 2.386 3.057v4.715c0 2.392-.28 2.995-1.901 3.081-1.541-.236-2.598-1.079-4.045-2.676l-1.689-1.841c2.276-.406 3.488-1.842 3.488-3.463 0-2.025-1.726-3.572-4.956-3.572h-6.461v.699c2.056 0 2.386.442 2.386 3.057v4.715c0 2.615-.33 3.094-2.386 3.094v.7h7.306v-.7c-2.056 0-2.387-.479-2.387-3.094v-1.325h.624l4.075 5.119h15.088l.22-3.462-.551-.001zm-19.456-2.8v-4.898h1.505c1.652 0 2.386 1.142 2.386 2.468 0 1.289-.734 2.431-2.386 2.431h-1.505zm26.907 6.74c-1.468 0-2.753-.773-3.304-1.252-.184.184-.513.737-.587 1.252h-.697v-5.082h.734c.294 2.431 1.982 3.867 4.148 3.867 1.175 0 2.129-.663 2.129-1.767 0-.957-.844-1.694-2.349-2.394l-2.093-.994c-1.469-.7-2.569-1.916-2.569-3.536 0-1.768 1.652-3.278 3.928-3.278 1.211 0 2.239.442 2.863.958.184-.148.367-.553.477-.995h.698v4.346h-.771c-.257-1.731-1.212-3.167-3.157-3.167-1.028 0-1.982.589-1.982 1.51 0 .957.77 1.473 2.533 2.283l2.018.994c1.763.847 2.46 2.21 2.46 3.315 0 2.32-2.019 3.94-4.479 3.94zm11.307 0c-1.469 0-2.754-.773-3.304-1.252-.184.184-.514.737-.587 1.252h-.698v-5.082h.735c.293 2.431 1.981 3.867 4.148 3.867 1.174 0 2.129-.663 2.129-1.767 0-.957-.844-1.694-2.35-2.394l-2.092-.994c-1.469-.7-2.57-1.916-2.57-3.536 0-1.768 1.652-3.278 3.928-3.278 1.212 0 2.239.442 2.864.958.183-.148.367-.553.476-.995h.698v4.346h-.771c-.257-1.731-1.211-3.167-3.156-3.167-1.028 0-1.983.589-1.983 1.51 0 .957.771 1.473 2.533 2.283l2.019.994c1.762.847 2.459 2.21 2.459 3.315 0 2.32-2.019 3.94-4.478 3.94zM2.727 19c0 6.452 3.737 12.027 9.156 14.67L4.134 12.366A16.28 16.28 0 0 0 2.727 19zm27.213-.823c0-2.014-.721-3.409-1.34-4.495-.823-1.343-1.595-2.48-1.595-3.822 0-1.498 1.133-2.893 2.728-2.893.072 0 .14.009.21.013-2.89-2.656-6.741-4.279-10.97-4.279-5.676 0-10.669 2.922-13.574 7.347l1.045.019c1.699 0 4.33-.207 4.33-.207.876-.052.979 1.239.104 1.343 0 0-.88.104-1.859.155l5.916 17.655 3.555-10.698-2.531-6.958c-.875-.051-1.704-.155-1.704-.155-.876-.051-.773-1.394.103-1.343 0 0 2.683.207 4.28.207 1.699 0 4.33-.207 4.33-.207.876-.052.979 1.239.104 1.343 0 0-.882.104-1.86.155l5.871 17.521 1.62-5.433c.703-2.254 1.237-3.874 1.237-5.269zm-10.682 2.248l-4.875 14.21a16.19 16.19 0 0 0 9.984-.26 1.44 1.44 0 0 1-.116-.224l-4.994-13.726zm13.97-9.246c.07.519.11 1.077.11 1.676 0 1.654-.308 3.513-1.235 5.838L27.14 33.088c4.83-2.826 8.078-8.076 8.078-14.089a16.25 16.25 0 0 0-1.99-7.82zM18.974 0C8.532 0 .036 8.523.036 19s8.496 19 18.939 19 18.938-8.522 18.938-19S29.416 0 18.974 0zm0 37.129C9.011 37.129.905 28.996.905 19S9.011.872 18.974.872 37.043 9.004 37.043 19s-8.105 18.13-18.068 18.13z"/></g></g><defs><clipPath id="A"><path fill="#fff" d="M0 0h167v38H0z"/></clipPath></defs></svg>
